
d1 $ sound (slow 2 "~ bass3") # speed (choose [0.5,0.4]) 

d2 $ sound (slow 2 "~ [~ bass3:4] ~~") # speed 0.5 

d4 $ sound "~ [~ bass3:3] ~ [~ bass3:3?] " # speed 0.5 # shape "0.3 0.1" # vowel (choose ["o", "e"])

d3 $ sound "~ [~808:1]"

d5 $ sound "~ ~ . ~ ~ ~ ~ 808:1 ~ 808:1? 808:1 . ~"

d6 $ sound "~ [hh:5] [hh:5?] [hh:5] "

d2 $ silence

hush

