
d1 $ sound (slow 2 "~ bass3") # speed (choose [0.5,0.4]) 

d6 $ sound (slow 2 "[~ bd] [bd] bd? [ ~ [bd:20 bd:20?]]") # speed 0.5

d2 $ sound (slow 2 "~ [~ bass3:4] ~~") # speed 0.5 

d3 $ sound "hardcore ~ [hardcore? hardcore] ~"

d4 $ sound (slow 32 "sheffield") # speed 0.1

d5 $ sound (slow 2 "birds:6? birds:6?") # vowel (choose ["u", "o"]) 

d6 $ silence

hush

